X: 1
T: Maureen Kennelly's
M: 4/4
L: 1/8
R: reel
K: Emin
edBA B~E3|B,~E3 cEBd|edBA B2BA|Bdef gefd|
edBA B~E3|B,~E3 cEBE|A3B cABG|AGED B,EE2:|
A3B cedc|Beef gefd|A2cA eAcA|Beed edBG|
A2cA eAcA|Bdef ~g3a|bgaf gfed|edBA BEE2:|
